src/OpenClaw.Tray.WinUI/Assets/SidebarIcons/Mono/Chat.svg

<svg width="24" height="24" viewBox="0 0 24 24" fill="none" xmlns="http://www.w3.org/2000/svg">
<path d="M12 2C17.5228 2 22 6.47715 22 12C22 17.5228 17.5228 22 12 22C10.3817 22 8.81782 21.6146 7.41286 20.888L3.58704 21.9553C2.92212 22.141 2.23258 21.7525 2.04691 21.0876C1.98546 20.8676 1.98549 20.6349 2.04695 20.4151L3.11461 16.5922C2.38637 15.186 2 13.6203 2 12C2 6.47715 6.47715 2 12 2ZM12 3.5C7.30558 3.5 3.5 7.30558 3.5 12C3.5 13.4696 3.87277 14.8834 4.57303 16.1375L4.72368 16.4072L3.61096 20.3914L7.59755 19.2792L7.86709 19.4295C9.12006 20.1281 10.5322 20.5 12 20.5C16.6944 20.5 20.5 16.6944 20.5 12C20.5 7.30558 16.6944 3.5 12 3.5ZM8.75 13H13.2483C13.6625 13 13.9983 13.3358 13.9983 13.75C13.9983 14.1297 13.7161 14.4435 13.35 14.4932L13.2483 14.5H8.75C8.33579 14.5 8 14.1642 8 13.75C8 13.3703 8.28215 13.0565 8.64823 13.0068L8.75 13H13.2483H8.75ZM8.75 9.5H15.2545C15.6687 9.5 16.0045 9.83579 16.0045 10.25C16.0045 10.6297 15.7223 10.9435 15.3563 10.9932L15.2545 11H8.75C8.33579 11 8 10.6642 8 10.25C8 9.8703 8.28215 9.55651 8.64823 9.50685L8.75 9.5H15.2545H8.75Z" fill="#212121"/>
</svg>

<svg xmlns="http://www.w3.org/2000/svg" width="24" height="24" viewBox="0 0 24 24"><path fill="currentColor" d="M12 2c5.523 0 10 4.477 10 10s-4.477 10-10 10a9.96 9.96 0 0 1-4.587-1.112l-3.826 1.067a1.25 1.25 0 0 1-1.54-1.54l1.068-3.823A9.96 9.96 0 0 1 2 12C2 6.477 6.477 2 12 2m0 1.5A8.5 8.5 0 0 0 3.5 12c0 1.47.373 2.883 1.073 4.137l.15.27l-1.112 3.984l3.987-1.112l.27.15A8.5 8.5 0 1 0 12 3.5M8.75 13h4.498a.75.75 0 0 1 .102 1.493l-.102.007H8.75a.75.75 0 0 1-.102-1.493zh4.498zm0-3.5h6.505a.75.75 0 0 1 .101 1.493l-.101.007H8.75a.75.75 0 0 1-.102-1.493zh6.505z"/></svg>
